icons/date.svg

<svg width="21" height="20" viewBox="0 0 21 20" fill="none" xmlns="http://www.w3.org/2000/svg">
<path d="M8.14282 12C8.44282 12 8.64282 11.8 8.64282 11.5C8.64282 11.2 8.44282 11 8.14282 11C7.84282 11 7.64282 11.2 7.64282 11.5C7.64282 11.8 7.84282 12 8.14282 12Z" fill="black"/>
<path d="M17.3928 4H15.3928V2H14.3928V4H6.39282V2H5.39282V4H3.39282C2.79282 4 2.39282 4.4 2.39282 5V16C2.39282 16.5 2.79282 17 3.39282 17H17.3928C17.8928 17 18.3928 16.5 18.3928 16V5C18.3928 4.4 17.8928 4 17.3928 4ZM17.3928 16H3.39282V9H17.3928V16ZM3.39282 8V5H5.39282V7H6.39282V5H14.3928V7H15.3928V5H17.3928V8H3.39282Z" fill="black"/>
<path d="M10.3928 12C10.6928 12 10.8928 11.8 10.8928 11.5C10.8928 11.2 10.6928 11 10.3928 11C10.0928 11 9.89282 11.2 9.89282 11.5C9.89282 11.8 10.0928 12 10.3928 12Z" fill="black"/>
<path d="M12.6428 12C12.9428 12 13.1428 11.8 13.1428 11.5C13.1428 11.2 12.9428 11 12.6428 11C12.3428 11 12.1428 11.2 12.1428 11.5C12.1428 11.8 12.3428 12 12.6428 12Z" fill="black"/>
<path d="M8.14282 13C7.84282 13 7.64282 13.2 7.64282 13.5C7.64282 13.8 7.84282 14 8.14282 14C8.44282 14 8.64282 13.8 8.64282 13.5C8.64282 13.2 8.44282 13 8.14282 13Z" fill="black"/>
<path d="M5.89282 12C6.19282 12 6.39282 11.8 6.39282 11.5C6.39282 11.2 6.19282 11 5.89282 11C5.59282 11 5.39282 11.2 5.39282 11.5C5.39282 11.8 5.59282 12 5.89282 12Z" fill="black"/>
<path d="M5.89282 13C5.59282 13 5.39282 13.2 5.39282 13.5C5.39282 13.8 5.59282 14 5.89282 14C6.19282 14 6.39282 13.8 6.39282 13.5C6.39282 13.2 6.19282 13 5.89282 13Z" fill="black"/>
<path d="M10.3928 13C10.0928 13 9.89282 13.2 9.89282 13.5C9.89282 13.8 10.0928 14 10.3928 14C10.6928 14 10.8928 13.8 10.8928 13.5C10.8928 13.2 10.6928 13 10.3928 13Z" fill="black"/>
<path d="M12.6428 13C12.3428 13 12.1428 13.2 12.1428 13.5C12.1428 13.8 12.3428 14 12.6428 14C12.9428 14 13.1428 13.8 13.1428 13.5C13.1428 13.2 12.9428 13 12.6428 13Z" fill="black"/>
<path d="M14.8928 12C15.1928 12 15.3928 11.8 15.3928 11.5C15.3928 11.2 15.1928 11 14.8928 11C14.5928 11 14.3928 11.2 14.3928 11.5C14.3928 11.8 14.5928 12 14.8928 12Z" fill="black"/>
<path d="M14.8928 13C14.5928 13 14.3928 13.2 14.3928 13.5C14.3928 13.8 14.5928 14 14.8928 14C15.1928 14 15.3928 13.8 15.3928 13.5C15.3928 13.2 15.1928 13 14.8928 13Z" fill="black"/>
</svg>

<svg xmlns="http://www.w3.org/2000/svg" width="21" height="20" viewBox="0 0 21 20" fill="none"><path fill="#000" d="M8.14 12c.3 0 .5-.2.5-.5s-.2-.5-.5-.5-.5.2-.5.5.2.5.5.5Z"/><path fill="#000" d="M17.4 4h-2V2h-1v2h-8V2h-1v2h-2c-.6 0-1 .4-1 1v11c0 .5.4 1 1 1h14c.5 0 1-.5 1-1V5c0-.6-.5-1-1-1Zm0 12h-14V9h14v7Zm-14-8V5h2v2h1V5h8v2h1V5h2v3h-14Z"/><path fill="#000" d="M10.4 12c.3 0 .5-.2.5-.5s-.2-.5-.5-.5-.5.2-.5.5.2.5.5.5ZM12.64 12c.3 0 .5-.2.5-.5s-.2-.5-.5-.5-.5.2-.5.5.2.5.5.5ZM8.14 13c-.3 0-.5.2-.5.5s.2.5.5.5.5-.2.5-.5-.2-.5-.5-.5ZM5.9 12c.3 0 .5-.2.5-.5s-.2-.5-.5-.5-.5.2-.5.5.2.5.5.5ZM5.9 13c-.3 0-.5.2-.5.5s.2.5.5.5.5-.2.5-.5-.2-.5-.5-.5ZM10.4 13c-.3 0-.5.2-.5.5s.2.5.5.5.5-.2.5-.5-.2-.5-.5-.5ZM12.64 13c-.3 0-.5.2-.5.5s.2.5.5.5.5-.2.5-.5-.2-.5-.5-.5ZM14.9 12c.3 0 .5-.2.5-.5s-.2-.5-.5-.5-.5.2-.5.5.2.5.5.5ZM14.9 13c-.3 0-.5.2-.5.5s.2.5.5.5.5-.2.5-.5-.2-.5-.5-.5Z"/></svg>
